icons/desktop/20/email-mask-20.svg

<svg width="20" height="20" viewBox="0 0 20 20" fill="none" xmlns="http://www.w3.org/2000/svg">
<path fill-rule="evenodd" clip-rule="evenodd" d="M15.3369 12.8125C15.9936 11.4963 16.5014 11.1858 17.0771 11.3047C17.5833 11.4088 17.8901 12.3178 18.0576 12.7139C18.3831 13.4836 18.6583 14.2551 18.8164 15.0713C18.9255 15.6346 19.217 16.0498 19.7891 16.0498L19.793 16.0518C19.9377 16.0538 20.0371 16.2042 19.9863 16.3398C19.8639 16.6668 19.488 16.8753 19.1738 16.9961C19.317 17.0331 19.7376 16.9495 19.7549 17.1592C19.7681 17.3321 19.3295 17.5049 19.2109 17.5625C18.1026 18.0961 17.083 19.0539 15.7715 18.8848C15.2013 18.8104 14.785 18.4093 14.3184 18.1602C14.0982 18.0431 13.8315 18.043 13.6113 18.1602C13.1447 18.4093 12.7284 18.8104 12.1582 18.8848C10.8467 19.0538 9.82705 18.0961 8.71875 17.5625C8.6002 17.5067 8.15975 17.3321 8.1748 17.1592C8.19394 16.9477 8.61442 17.033 8.75586 16.9961C8.44175 16.8753 8.06578 16.6668 7.94336 16.3398C7.89259 16.2042 7.99014 16.052 8.13672 16.0518C8.71066 16.0499 9.00121 15.6366 9.11035 15.0732C9.26842 14.2553 9.54265 13.4855 9.86816 12.7158C10.0356 12.3217 10.3425 11.4109 10.8486 11.3066C11.4244 11.1877 11.934 11.4963 12.5889 12.8145C13.1289 13.8984 13.4941 14.6572 13.4941 14.6572V14.6641L13.8652 14.6602L13.875 14.6592H14.0605L14.4316 14.6621V14.6553C14.4316 14.6553 14.7968 13.8983 15.3369 12.8125ZM13.1973 17.0391C12.9301 16.182 11.8329 15.8576 11.0049 15.9951C10.8657 16.0174 10.4822 16.1535 10.499 16.3301V16.332C10.8716 17.2541 12.437 17.7323 13.1973 17.0391ZM16.9189 15.9951C16.0914 15.8578 14.9944 16.181 14.7266 17.0371C15.4868 17.7325 17.0513 17.2523 17.4258 16.3301C17.4425 16.1535 17.0582 16.0174 16.9189 15.9951Z" fill="black"/>
<path fill-rule="evenodd" clip-rule="evenodd" d="M7.99609 3.00488C8.18633 3.0067 8.37702 3.00586 8.56738 3.00977C8.7053 3.0126 8.84372 3.01854 8.98145 3.02246C9.20471 3.02883 9.42808 3.03469 9.65137 3.04395C9.77084 3.0489 9.89048 3.05574 10.0098 3.06152C10.2321 3.07229 10.4546 3.08205 10.6768 3.0957C10.9171 3.11048 11.1571 3.13032 11.3965 3.14844C11.5064 3.15676 11.6167 3.16382 11.7266 3.17285H11.7334C11.7441 3.17374 11.7549 3.17488 11.7656 3.17578C13.6089 3.32911 14.9999 4.84932 15 6.71094V10.4287C14.2689 11.3987 13.9639 11.8613 13.9639 11.8613C13.9639 11.8613 13.6758 11.3578 12.915 10.4053V6.71094C12.915 6.7067 12.9141 6.70247 12.9141 6.69824L10.2686 9.34473C9.50022 10.1114 8.47967 10.5 7.45801 10.5C6.53812 10.4999 5.61784 10.1861 4.87793 9.54785C4.31943 9.06717 3.16962 7.96709 2.08496 6.91406V10.9609L2.08203 10.959C2.08531 11.7129 2.68116 12.3526 3.44238 12.4141C4.56854 12.5065 5.69686 12.5521 6.82324 12.5635H8.13281C7.87298 13.2169 7.60588 13.9718 7.45312 14.6582C6.03854 14.657 4.62306 14.6027 3.27344 14.4912C1.43688 14.3394 0 12.7854 0 10.9521V6.71094C5.90598e-05 4.84932 1.39108 3.32911 3.23438 3.17578C3.24448 3.17493 3.25455 3.1737 3.26465 3.17285H3.27344C3.38267 3.16388 3.49225 3.15671 3.60156 3.14844C3.84091 3.13031 4.08093 3.11049 4.32129 3.0957C4.5435 3.08204 4.76594 3.0723 4.98828 3.06152C5.10757 3.05574 5.2272 3.04891 5.34668 3.04395C5.57018 3.03467 5.7941 3.02884 6.01758 3.02246C6.1552 3.01853 6.29285 3.0126 6.43066 3.00977C6.62114 3.00585 6.81161 3.00671 7.00195 3.00488C7.15487 3.00342 7.30786 3.00011 7.46094 3H7.53906C7.69149 3.00011 7.84382 3.00343 7.99609 3.00488ZM7.5 5.08203C6.2217 5.08208 4.92225 5.13289 3.63477 5.23438C3.56975 5.23952 3.50435 5.24363 3.43945 5.24902C3.41592 5.25102 3.39234 5.25473 3.36914 5.25781C4.49066 6.34871 5.69738 7.50543 6.23633 7.96973C6.97966 8.60639 8.10033 8.56512 8.79199 7.87012L11.4229 5.23828C11.4033 5.23686 11.3838 5.23592 11.3643 5.23438C10.0772 5.13296 8.77788 5.08208 7.5 5.08203Z" fill="black"/>
</svg>

<!-- This Source Code Form is subject to the terms of the Mozilla Public
   - License, v. 2.0. If a copy of the MPL was not distributed with this
   - file, You can obtain one at http://mozilla.org/MPL/2.0/. -->
<svg xmlns="http://www.w3.org/2000/svg" width="20" height="20" fill="context-fill" fill-opacity="context-fill-opacity" viewBox="0 0 20 20">
    <path fill-rule="evenodd" d="M15.337 12.813c.657-1.317 1.164-1.627 1.74-1.508.506.104.813 1.013.98 1.409.326.77.601 1.541.76 2.357.108.564.4.979.972.979l.004.002a.214.214 0 0 1 .193.288c-.122.327-.498.535-.812.656.143.037.564-.046.58.163.014.173-.425.346-.543.404-1.108.533-2.128 1.49-3.44 1.322-.57-.075-.986-.476-1.453-.725a.76.76 0 0 0-.707 0c-.466.25-.883.65-1.453.725-1.311.169-2.33-.789-3.44-1.323-.118-.055-.558-.23-.543-.403.019-.211.44-.126.58-.163-.313-.12-.69-.33-.812-.656-.05-.136.047-.288.194-.288.574-.002.864-.415.973-.979.158-.818.433-1.588.758-2.357.168-.394.474-1.305.98-1.41.576-.118 1.086.19 1.74 1.509.54 1.083.906 1.842.906 1.842v.007l.371-.004h.195l.372.002v-.007s.365-.757.905-1.842m-2.14 4.226c-.267-.857-1.364-1.181-2.192-1.044-.14.022-.523.159-.506.335v.002c.373.922 1.938 1.4 2.698.707m3.722-1.044c-.828-.137-1.925.186-2.192 1.042.76.696 2.324.215 2.699-.707.017-.176-.368-.313-.507-.335" clip-rule="evenodd" />
    <path fill-rule="evenodd" d="M7.996 3.005c.19.002.381 0 .571.005l.414.012q.336.01.67.022.18.008.359.018.334.014.667.034c.24.014.48.034.72.052l.33.025h.006l.033.003A3.516 3.516 0 0 1 15 6.71v3.718a32 32 0 0 0-1.036 1.432s-.288-.503-1.049-1.456V6.698l-2.646 2.647A3.97 3.97 0 0 1 7.458 10.5c-.92 0-1.84-.314-2.58-.952-.559-.48-1.708-1.58-2.793-2.634v4.047l-.003-.002a1.48 1.48 0 0 0 1.36 1.455c1.127.093 2.255.138 3.381.15h1.31c-.26.653-.527 1.408-.68 2.094a52 52 0 0 1-4.18-.167C1.437 14.34 0 12.785 0 10.952V6.711a3.516 3.516 0 0 1 3.234-3.535l.03-.003h.01q.163-.013.328-.025c.239-.018.479-.038.72-.052q.332-.02.666-.034l.359-.018q.335-.013.67-.022c.138-.003.276-.01.414-.012q.285-.004.57-.005.23-.004.46-.005h.078q.229.001.457.005M7.5 5.082c-1.278 0-2.578.05-3.865.152q-.097.008-.196.015l-.07.009c1.122 1.09 2.328 2.247 2.867 2.712a1.886 1.886 0 0 0 2.556-.1l2.63-2.632-.058-.004A49 49 0 0 0 7.5 5.082" clip-rule="evenodd" />
</svg>
